!!!OTL: Die Heufahrt (1-7), S. 18
!!!id: K0085
**kern
*clefG2
*k[f#]
*G:
{8d
=1
8.g
16g
8b
8.dd
16b
8g
=2
4f#
8a
4cc
8f#
=3
8.g
16g
8b
8.dd
16b
8g
=4
4.a}
4r
=5
{8d
=6
4g
8b
8.dd
16b
8g
=7
4f#
8a
8cc
8a
8f#
=8
4g
16b
16b
8.dd
16b
8g
=9
4.a}
4r
=10
{8b
=11
8.a
16a
8a
8.a
16a
8cc
=12
4b
8b
8.a
16a
8a
=13
8.a
16a
8cc
4b}
=14
{8dd
=15
8ee
8cc
8cc
4cc
8ee
=16
8dd
8b
8b
4b}
=17
{8dd
=18
8.ff#
16ee
8dd
8.cc
16b
8a
=19
4.g}
4r
=20
{8dd
=21
8ee
8cc
8cc
4cc
8ee
=22
8dd
8b
8b
4b}
=23
{8b
=24
8.a
16a
8a
8.dd
16dd
8dd
=25
4.g}
4r
==
*-
!!!minrhy: 16
!!!meters: 6/8 ]  ZZ[7
!!!cut: Die Heufahrt (1-7), S. 18
!!!reg: Luxemburg
!!!trd: KINTZELE, Guillaume: An der Ucht, Bd. 1, Luxemburg 1926
!!!rhy1: X_  X_.XX_X_.XX_  X__X_X__X_  X_.XX_X_.XX_  X__.0__
!!!rhy2: X_  X__X_X_.XX_  X__X_X_X_X_  X__XXX_.XX_  X__.0__
!!!key: K0085  16  G 6/8 ]  ZZ[7
!!!mod: HEPTATONIK IONISCH]  AMBITUS[10
!!!kad: 2233131
!!!akz: 15-74152_15-74152_223223_6453_741_6453_251_
!!!fot: 'a__av_b__c__d__c__e__
!!!for: 'a__b__c__d__aw_d__aw_
!!!fok: 'Ma_$a_-__\__^d_\__^d_
!! PHRAS[AUFTAKTIG]
!!!fkt: Berufslied
!!!bem: in der Quelle mit einer 2. Stimme versehen
!! KINTZELE
!! PR[26] 2K[8] 2G[14] 3K[4] 3G[5] 4A[5] 4Ü[0] 5A[0] 6K[1] 6G[1]
!! 7K[0] 7G[0] 8A[0] MEHR[0] SI[39] ABS[98] SR[22] SP[16]
!! ST[20] 2k[6] 2g[17] 3k[1] 3g[1] 4d[7] 4ü[1] 5d[1] 6k[0] 6g[0]
!! 7k[1] 7g[0] 8d[0] mehr[0] si[36] dm[+3] sr[23] sp[12]
!! 1F[5] 2F[65] 3F[5] 4F[6] LF[0] 2P[5] 3P[11] 4P[0] TRI[0] DF[7] AB[110]
!! TF[0] U3K[0] U3[0] U4[0] U4Ü[0] U5[2] U6K[0] U6[0] U7K[0] U7[1]
!! N1[9] N2K[0] N2[20] N3K[0] N3[26] N4[9] N4Ü[1] N5[19] N6K[0] N6[10]
!!!n7k: 0] N7[1] O1[1] O2K[0] O2[0] O3K[0] O3[0] HÖ[0
